src/assets/icons/edit-with-blue-background.svg

<svg width="24" height="24" viewBox="0 0 24 24" fill="none" xmlns="http://www.w3.org/2000/svg">
<circle cx="12.0001" cy="12.0006" r="7.1246" fill="white"/>
<path d="M12 2C6.47594 2 2 6.47594 2 12C2 17.5241 6.47594 22 12 22C17.5241 22 22 17.5241 22 12C22 6.47594 17.5241 2 12 2V2ZM9.10401 16.6998L7.00004 16.9917L7.30403 14.8878L13.7599 8.42786L15.5759 10.2318L9.10401 16.6998ZM15.9439 9.8679L14.1399 8.06393L15.1959 7.00794L16.9999 8.81191L15.9439 9.8679Z" fill="#379AFF"/>
</svg>

<svg xmlns="http://www.w3.org/2000/svg" width="24" height="24" fill="none" viewBox="0 0 24 24">
  <circle cx="12" cy="12.001" r="7.125" fill="#fff"/>
  <path fill="#379AFF" d="M12 2C6.476 2 2 6.476 2 12s4.476 10 10 10 10-4.476 10-10S17.524 2 12 2ZM9.104 16.7 7 16.992l.304-2.104 6.456-6.46 1.816 1.804L9.104 16.7Zm6.84-6.832L14.14 8.064l1.056-1.056L17 8.812l-1.056 1.056Z"/>
</svg>
